X:1
T:Out of the Trenches
L:1/8
M:3/4
R:Air
C:T. S. Macdonald
K:Em
%%text Very Slow
ed | B3 A Bd | e4 dB | A3 G ED | B,4 A,G, | A,3 F GB | A4 GF | E6 | E4 :|
GA | B3 e gb | a4 EF | G2 B  AF | D4 GA | B3 e gb | a4 ga | b6 | b4 GA |
     B3 e gb | a4 EF | G3 B2 AF | D4 GA | BA Be gb | a4 {ba}gf | e6 | [Be]4 ||
ED | B,3 A, B,D & D6 | E4 DE & B,6 | G3 D DB, & B,6 | G,4 A,G, & D6 | A,3 F GB & E6 | A4 GF & F6 | E6 & A6 | E4 ED & B,6 |
     B,3 A, B,D | E4 DE | G3 D DB, | G,4 A,2 | B,4 B2 | A4 FD | E6 | [BE]4 ||
gf | g3 b ge | f4 gf | e3 f  e^d | e4 BA | B3 e gb | a4 ga | b6 | b4 gf |
     g3 b ge | f4 gf | e2 f2 e^d | e4 BA | B3 e gb | a4 {ba}gf | e6 | [EBe]4 |] 

